svgs/light/scythe.svg

<svg xmlns="http://www.w3.org/2000/svg" viewBox="0 0 640 512"><!--! Font Awesome Pro 6.3.0 by @fontawesome - https://fontawesome.com License - https://fontawesome.com/license (Commercial License) Copyright 2023 Fonticons, Inc. --><path d="M639.7 19.12l-96 480C542.2 506.8 535.5 512 528 512c-1.031 0-2.094-.0938-3.156-.3125c-8.656-1.719-14.28-10.16-12.55-18.81L543.7 336H400c-8.844 0-16.02-7.156-16.02-16S391.2 304 400 304h150.1l54.4-271.1L337.4 32C222.2 32 113.3 86.53 46.28 176h465.7c8.844 0 16 7.156 16 16s-7.156 16-16 16H16c-5.812 0-11.16-3.156-13.98-8.219c-2.828-5.094-2.672-11.28 .3906-16.22C72.72 70.34 201.1 0 337.4 0c0 0 251.1 .0625 286.6 0c4.797 0 9.344 2.156 12.38 5.844C639.4 9.562 640.6 14.44 639.7 19.12z"/></svg>

<svg xmlns="http://www.w3.org/2000/svg" viewBox="0 0 640 512"><!-- Font Awesome Pro 6.0.0-alpha2 by @fontawesome - https://fontawesome.com License - https://fontawesome.com/license (Commercial License) --><path d="M639.692 19.125L543.692 499.125C542.177 506.75 535.489 512 528.02 512C526.989 512 525.927 511.906 524.864 511.688C516.208 509.969 510.583 501.531 512.317 492.875L543.694 336H400.001C391.157 336 384.001 328.844 384.001 320S391.157 304 400.001 304H550.093L604.489 32.031C557.817 32.031 337.411 32 337.411 32C222.208 32 113.268 86.531 46.284 176H512.005C520.849 176 528.005 183.156 528.005 192S520.849 208 512.005 208H16.003C10.19 208 4.847 204.844 2.018 199.781C-0.81 194.688 -0.653 188.5 2.409 183.563C72.722 70.344 201.099 0 337.411 0C337.411 0 588.52 0.062 623.989 0H624.005C628.802 0 633.333 2.156 636.364 5.844C639.411 9.562 640.63 14.438 639.692 19.125Z"/></svg>
